dist/icons/svgs/chevron-circle-right-outline.svg

<svg xmlns="http://www.w3.org/2000/svg" width="24" height="24" fill="currentcolor" class="icon-chevron-circle-right-outline" viewBox="0 0 24 24">
  <path d="M20.125 12C20.125 9.10938 18.5625 6.45312 16.0625 4.96875C13.5234 3.52344 10.4375 3.52344 7.9375 4.96875C5.39844 6.45312 3.875 9.10938 3.875 12C3.875 14.9297 5.39844 17.5859 7.9375 19.0703C10.4375 20.5156 13.5234 20.5156 16.0625 19.0703C18.5625 17.5859 20.125 14.9297 20.125 12ZM2 12C2 8.44531 3.875 5.16406 7 3.36719C10.0859 1.57031 13.875 1.57031 17 3.36719C20.0859 5.16406 22 8.44531 22 12C22 15.5938 20.0859 18.875 17 20.6719C13.875 22.4688 10.0859 22.4688 7 20.6719C3.875 18.875 2 15.5938 2 12ZM11.4141 16.7266C11.0234 17.1172 10.4375 17.1172 10.0859 16.7266C9.69531 16.375 9.69531 15.7891 10.0859 15.3984L13.4844 12L10.0859 8.60156C9.69531 8.25 9.69531 7.66406 10.0859 7.27344C10.4375 6.92188 11.0234 6.92188 11.4141 7.27344L15.4766 11.375C15.8281 11.7266 15.8281 12.3125 15.4766 12.6641L11.4141 16.7266Z"/>
</svg>

<svg xmlns="http://www.w3.org/2000/svg" width="24" height="24" fill="currentColor" class="icon-chevron-circle-right-outline" viewBox="0 0 24 24">
  <path d="M20.125 12c0-2.89-1.562-5.547-4.062-7.031-2.54-1.446-5.625-1.446-8.125 0C5.398 6.453 3.875 9.109 3.875 12a8.13 8.13 0 0 0 4.063 7.07c2.5 1.446 5.585 1.446 8.125 0 2.5-1.484 4.062-4.14 4.062-7.07M2 12a9.93 9.93 0 0 1 5-8.633c3.086-1.797 6.875-1.797 10 0 3.086 1.797 5 5.078 5 8.633 0 3.594-1.914 6.875-5 8.672-3.125 1.797-6.914 1.797-10 0C3.875 18.875 2 15.594 2 12m9.414 4.727c-.39.39-.976.39-1.328 0-.39-.352-.39-.938 0-1.329L13.484 12l-3.398-3.398c-.39-.352-.39-.938 0-1.329.351-.351.937-.351 1.328 0l4.063 4.102a.92.92 0 0 1 0 1.29z"/>
</svg>
